X: 1
P: David Brooks
M: 4/4
R: Strathspey
C: from David Knight
C: arr. T. Traub 8-23-04
L: 1/8
K: A
|: E|"A"A/B/c B>A "D"Fc|"Bm"d>cd>e "D"f<c"E"B>c|"A"A/B/c B>A "D"F<AA>F|"E"E>FA>B "A"c<A A :|
c|"Bm"B<ff>e f>g"E"e>g|"Bm"B<ff>e "F#m"c>fA>f|"Bm"B<f"E7"f>e "A"c>A "D"F<A|"E"E>FA>B "A"c<AA>c|
"Bm"B<ff>e "E"g>e c<e|"Bm"B<fd<f "F#m"c<fe<f|"D"d<f"E"e>g "A"af e>c|"E"E>FA>B "A"c<A A2|]
